svg/color/amo.svg

<?xml version="1.0" encoding="UTF-8" ?>
<!DOCTYPE svg PUBLIC "-//W3C//DTD SVG 1.1//EN" "http://www.w3.org/Graphics/SVG/1.1/DTD/svg11.dtd">
<svg width="250pt" height="250pt" viewBox="0 0 250 250" version="1.1" xmlns="http://www.w3.org/2000/svg">
<g id="#ffffffff">
<path fill="#ffffff" opacity="1.00" d=" M 0.00 0.00 L 12.55 0.00 C 6.79 3.07 0.37 7.49 0.82 14.95 L 0.00 10.49 L 0.00 0.00 Z" />
<path fill="#ffffff" opacity="1.00" d=" M 95.45 0.00 L 160.62 0.00 C 158.28 0.07 156.04 0.74 153.86 1.55 C 149.63 3.80 146.51 7.51 144.67 11.91 C 144.36 15.60 144.26 19.30 144.31 23.00 C 144.33 50.55 144.31 78.10 144.32 105.64 C 174.19 105.62 204.07 105.70 233.94 105.61 C 240.20 105.79 245.50 101.41 248.41 96.19 C 249.19 94.01 249.89 91.78 250.00 89.45 L 250.00 159.69 C 249.28 151.67 242.26 144.24 233.95 144.38 C 204.07 144.21 174.19 144.35 144.32 144.31 C 144.33 173.86 144.29 203.41 144.33 232.95 C 143.75 241.67 151.42 249.31 159.87 250.00 L 90.14 250.00 C 91.66 249.61 94.69 248.84 96.21 248.46 C 101.38 245.48 105.73 240.22 105.62 233.99 C 105.76 204.10 105.64 174.20 105.68 144.31 C 76.79 144.30 47.90 144.31 19.01 144.30 C 15.49 144.30 11.78 144.38 8.70 146.30 C 5.50 147.90 3.45 150.93 1.45 153.77 C 1.34 155.28 1.11 158.32 0.99 159.84 C 0.74 158.49 0.25 155.79 0.00 154.44 L 0.00 90.38 C 0.38 91.84 1.14 94.77 1.52 96.23 C 4.57 101.38 9.82 105.89 16.13 105.62 C 45.98 105.69 75.83 105.63 105.68 105.64 C 105.69 77.10 105.66 48.55 105.69 20.00 C 105.70 17.31 105.53 14.63 105.32 11.95 C 102.90 6.14 97.90 0.60 91.08 0.82 L 95.45 0.00 Z" />
<path fill="#ffffff" opacity="1.00" d=" M 239.40 0.00 L 250.00 0.00 L 250.00 12.43 C 246.84 6.81 242.54 0.47 235.17 0.82 L 239.40 0.00 Z" />
<path fill="#ffffff" opacity="1.00" d=" M 0.00 234.39 C 0.80 241.93 7.05 249.53 15.17 249.16 L 10.65 250.00 L 0.00 250.00 L 0.00 234.39 Z" />
<path fill="#ffffff" opacity="1.00" d=" M 249.17 234.95 L 250.00 239.35 L 250.00 250.00 L 234.20 250.00 C 241.79 249.30 249.39 243.06 249.17 234.95 Z" />
</g>
<g id="#000000ff">
<path fill="#000000" opacity="1.00" d=" M 12.55 0.00 L 95.45 0.00 L 91.08 0.82 C 97.90 0.60 102.90 6.14 105.32 11.95 C 105.53 14.63 105.70 17.31 105.69 20.00 C 105.66 48.55 105.69 77.10 105.68 105.64 C 75.83 105.63 45.98 105.69 16.13 105.62 C 9.82 105.89 4.57 101.38 1.52 96.23 C 1.14 94.77 0.38 91.84 0.00 90.38 L 0.00 10.49 L 0.82 14.95 C 0.37 7.49 6.79 3.07 12.55 0.00 Z" />
<path fill="#000000" opacity="1.00" d=" M 160.62 0.00 L 239.40 0.00 L 235.17 0.82 C 242.54 0.47 246.84 6.81 250.00 12.43 L 250.00 89.45 C 249.89 91.78 249.19 94.01 248.41 96.19 C 245.50 101.41 240.20 105.79 233.94 105.61 C 204.07 105.70 174.19 105.62 144.32 105.64 C 144.31 78.10 144.33 50.55 144.31 23.00 C 144.26 19.30 144.36 15.60 144.67 11.91 C 146.51 7.51 149.63 3.80 153.86 1.55 C 156.04 0.74 158.28 0.07 160.62 0.00 Z" />
<path fill="#000000" opacity="1.00" d=" M 8.70 146.30 C 11.78 144.38 15.49 144.30 19.01 144.30 C 47.90 144.31 76.79 144.30 105.68 144.31 C 105.64 174.20 105.76 204.10 105.62 233.99 C 105.73 240.22 101.38 245.48 96.21 248.46 C 94.69 248.84 91.66 249.61 90.14 250.00 L 10.65 250.00 L 15.17 249.16 C 7.05 249.53 0.80 241.93 0.00 234.39 L 0.00 154.44 C 0.25 155.79 0.74 158.49 0.99 159.84 C 1.11 158.32 1.34 155.28 1.45 153.77 C 3.45 150.93 5.50 147.90 8.70 146.30 Z" />
<path fill="#000000" opacity="1.00" d=" M 144.32 144.31 C 174.19 144.35 204.07 144.21 233.95 144.38 C 242.26 144.24 249.28 151.67 250.00 159.69 L 250.00 239.35 L 249.17 234.95 C 249.39 243.06 241.79 249.30 234.20 250.00 L 159.87 250.00 C 151.42 249.31 143.75 241.67 144.33 232.95 C 144.29 203.41 144.33 173.86 144.32 144.31 Z" />
</g>
</svg>

<?xml version="1.0" encoding="utf-8"?>
<!-- Generator: Adobe Illustrator 26.0.3, SVG Export Plug-In . SVG Version: 6.00 Build 0)  -->
<svg version="1.1" id="Layer_1" xmlns="http://www.w3.org/2000/svg" xmlns:xlink="http://www.w3.org/1999/xlink" x="0px" y="0px"
	 viewBox="0 0 250 250" style="enable-background:new 0 0 250 250;" xml:space="preserve">
<style type="text/css">
	.st0{fill:#FFFFFF;}
</style>
<g id="_x23_ffffffff">
	<path class="st0" d="M0,0h12.6C6.8,3.1,0.4,7.5,0.8,14.9L0,10.5V0z"/>
	<path class="st0" d="M239.4,0H250v12.4c-3.2-5.6-7.5-12-14.8-11.6L239.4,0z"/>
	<path class="st0" d="M0,234.4c0.8,7.5,7.1,15.1,15.2,14.8l-4.5,0.8H0V234.4z"/>
	<path class="st0" d="M249.2,234.9l0.8,4.4V250h-15.8C241.8,249.3,249.4,243.1,249.2,234.9z"/>
</g>
<g id="_x23_000000ff">
	<path d="M12.6,0h82.9l-4.4,0.8c6.8-0.2,11.8,5.3,14.2,11.1c0.2,2.7,0.4,5.4,0.4,8.1c0,28.5,0,57.1,0,85.6c-29.8,0-59.7,0.1-89.6,0
		c-6.3,0.3-11.6-4.2-14.6-9.4c-0.4-1.5-1.1-4.4-1.5-5.9V10.5l0.8,4.5C0.4,7.5,6.8,3.1,12.6,0z"/>
	<path d="M160.6,0h78.8l-4.2,0.8c7.4-0.3,11.7,6,14.8,11.6v77c-0.1,2.3-0.8,4.6-1.6,6.7c-2.9,5.2-8.2,9.6-14.5,9.4
		c-29.9,0.1-59.8,0-89.6,0c0-27.5,0-55.1,0-82.6c-0.1-3.7,0.1-7.4,0.4-11.1c1.8-4.4,5-8.1,9.2-10.4C156,0.7,158.3,0.1,160.6,0z"/>
	<path d="M8.7,146.3c3.1-1.9,6.8-2,10.3-2c28.9,0,57.8,0,86.7,0c0,29.9,0.1,59.8-0.1,89.7c0.1,6.2-4.2,11.5-9.4,14.5
		c-1.5,0.4-4.5,1.1-6.1,1.5H10.6l4.5-0.8c-8.1,0.4-14.4-7.2-15.2-14.8v-79.9c0.2,1.3,0.7,4.1,1,5.4c0.1-1.5,0.4-4.6,0.5-6.1
		C3.5,150.9,5.5,147.9,8.7,146.3z"/>
	<path d="M144.3,144.3c29.9,0,59.8-0.1,89.6,0.1c8.3-0.1,15.3,7.3,16.1,15.3v79.7l-0.8-4.4c0.2,8.1-7.4,14.4-15,15.1h-74.3
		c-8.4-0.7-16.1-8.3-15.5-17.1C144.3,203.4,144.3,173.9,144.3,144.3z"/>
</g>
</svg>
